brandFactory_export/2.Regular/Bajada de Precio_2Regular.svg

<?xml version="1.0" encoding="UTF-8"?>
<svg width="24px" height="24px" viewBox="0 0 24 24" version="1.1" xmlns="http://www.w3.org/2000/svg" xmlns:xlink="http://www.w3.org/1999/xlink">
    <title>2.Regular/Bajada de Precio_2Regular</title>
    <g id="Symbols" stroke="none" stroke-width="1" fill="none" fill-rule="evenodd">
        <g id="2.Regular/Bajada-de-Precio_2Regular" fill="#5CB615" fill-rule="nonzero">
            <path d="M16.1142857,-1.27897692e-12 C17.1394958,-1.27897692e-12 17.7781513,0.638655462 17.7781513,1.66386555 L17.7781513,14.4302521 L21.0386555,14.4302521 C21.4084034,14.4302521 21.7109244,14.7294118 21.7142857,15.0991597 C21.7142857,15.287395 21.6369748,15.4689076 21.4957983,15.5966387 L12.9714286,23.4655462 C12.8470588,23.5798319 12.6857143,23.6436975 12.5176471,23.6436975 C12.3495798,23.6436975 12.184874,23.5798319 12.0605042,23.4655462 L3.5394958,15.5966387 C3.26722689,15.3445378 3.25042017,14.9210084 3.50252101,14.6453782 C3.6302521,14.507563 3.80840336,14.4302521 3.99663866,14.4302521 L7.25714286,14.4302521 L7.25656763,13.7757873 C5.70739185,13.669098 4.47687132,13.1839535 3.58991597,12.3294118 C2.53781513,11.3142857 2.00672269,9.81848739 2.00672269,7.87563025 C2.00672269,5.93277311 2.53781513,4.43361345 3.58991597,3.41848739 C4.47687132,2.56394569 5.70739185,2.07880114 7.25656763,1.97211188 L7.25714286,1.66386555 C7.25714286,0.638655462 7.88907563,-1.27897692e-12 8.90420168,-1.27897692e-12 L16.1142857,-1.27897692e-12 Z M16.1142857,1.34453782 L8.90420168,1.34453782 C8.73613445,1.34453782 8.66554622,1.37815126 8.65210084,1.39159664 C8.63865546,1.40504202 8.60168067,1.48235294 8.60168067,1.66386555 L8.60134165,1.97204896 C10.1509476,2.07861029 11.3817777,2.5637776 12.2689076,3.41848739 C13.3210084,4.4302521 13.8521008,5.92941176 13.8521008,7.87226891 C13.8521008,9.81512605 13.3176471,11.3142857 12.2689076,12.3260504 C11.381971,13.1835207 10.1489006,13.6690263 8.60139812,13.7757742 L8.60168067,15.0991597 C8.60168067,15.4689076 8.29915966,15.7714286 7.92941177,15.7714286 L5.71428571,15.7714286 L12.5176471,22.0537815 L19.3210084,15.7714286 L17.1058824,15.7714286 C16.7361345,15.7714286 16.4336134,15.4689076 16.4336134,15.0991597 L16.4336134,1.66386555 C16.4336134,1.49579832 16.4,1.41848739 16.3798319,1.39831933 C16.3596639,1.37815126 16.2823529,1.34453782 16.1142857,1.34453782 Z M7.92941177,3.29411765 C4.85042017,3.29411765 3.3512605,4.79327731 3.3512605,7.87563025 C3.3512605,10.9579832 4.85042017,12.4571429 7.92941177,12.4571429 C11.0084034,12.4571429 12.507563,10.9579832 12.507563,7.87563025 C12.507563,4.79327731 11.0084034,3.29411765 7.92941177,3.29411765 Z M7.92941177,3.85882353 C8.16134454,3.85882353 8.34957983,4.04705882 8.34957983,4.2789916 L8.34950761,4.62423515 C8.77704548,4.68233512 9.1721841,4.8165446 9.49579832,5.01512605 C9.74117647,5.16638655 9.77815126,5.36470588 9.77815126,5.46890756 C9.77815126,5.73445378 9.56302521,5.95294118 9.29411765,5.95294118 C9.19327731,5.94957983 9.09579832,5.92268908 9.00840336,5.87563025 L9.00168067,5.87226891 C8.78052415,5.75215804 8.56585578,5.66773206 8.34908887,5.61715097 L8.34872269,7.358 L8.39194211,7.36463405 C9.81010627,7.61383934 10.1176471,8.46488856 10.1176471,9.15294118 C10.1176471,9.72773109 9.90588235,10.2117647 9.5092437,10.5579832 C9.21175143,10.813679 8.81714975,10.9812571 8.3504305,11.0528251 L8.34957983,11.4117647 C8.34957983,11.6403361 8.16134454,11.8285714 7.92941177,11.8285714 C7.69747899,11.8285714 7.5092437,11.6403361 7.5092437,11.4084034 L7.50925203,11.0767031 C6.92347471,11.0206115 6.36099071,10.8170279 5.87226891,10.4806723 C5.71428571,10.3697479 5.63697479,10.2252101 5.63697479,10.0436975 C5.64033613,9.76806723 5.86218487,9.54957983 6.13781513,9.55294118 C6.25210084,9.55630252 6.36302521,9.58991597 6.45714286,9.65378151 C6.80741024,9.88645913 7.15953983,10.0334748 7.5093734,10.0934423 L7.50872269,8.246 L7.48035967,8.24256492 C6.08626392,7.99712792 5.78487395,7.15586408 5.78487395,6.48067227 C5.78487395,5.44529251 6.45134889,4.73903618 7.50929871,4.61212856 L7.5092437,4.2789916 C7.5092437,4.04705882 7.69747899,3.85882353 7.92941177,3.85882353 Z M8.35121297,8.37859868 L8.3504018,10.0699328 C8.83760576,9.94897051 9.12605042,9.63286292 9.12605042,9.18655462 C9.12605042,8.8626607 9.02339427,8.54609935 8.35121297,8.37859868 Z M6.77647059,6.43697479 C6.77647059,6.6363853 6.77647059,7.02215298 7.50709954,7.22041799 L7.50851904,5.59155493 C7.04444826,5.68643694 6.77647059,5.98851869 6.77647059,6.43697479 Z" id="Bajada-de-Precio_2Regular"></path>
        </g>
    </g>
</svg>

<svg width="24" height="24" viewBox="0 0 24 24" xmlns="http://www.w3.org/2000/svg"><path d="M16.114 0c1.025 0 1.664.639 1.664 1.664V14.43h3.26c.37 0 .673.3.676.67a.67.67 0 01-.218.497l-8.525 7.869a.67.67 0 01-.91 0l-8.522-7.87a.674.674 0 01.458-1.166h3.26v-.654c-1.55-.107-2.78-.592-3.667-1.447-1.052-1.015-1.583-2.51-1.583-4.453 0-1.943.53-3.442 1.583-4.458.887-.854 2.117-1.34 3.667-1.446v-.308C7.257.639 7.89 0 8.904 0h7.21zm0 1.345h-7.21c-.168 0-.238.033-.252.047-.013.013-.05.09-.05.272v.308c1.549.107 2.78.592 3.667 1.446 1.052 1.012 1.583 2.511 1.583 4.454 0 1.943-.534 3.442-1.583 4.454-.887.858-2.12 1.343-3.668 1.45v1.323c0 .37-.302.672-.672.672H5.714l6.804 6.283 6.803-6.283h-2.215a.674.674 0 01-.672-.672V1.664c0-.168-.034-.246-.054-.266-.02-.02-.098-.053-.266-.053zM7.93 3.295c-3.079 0-4.578 1.498-4.578 4.58 0 3.083 1.5 4.582 4.578 4.582 3.08 0 4.579-1.499 4.579-4.581 0-3.083-1.5-4.582-4.579-4.582zm0 .564a.42.42 0 01.42.42v.345c.428.058.823.193 1.147.391.245.151.282.35.282.454a.484.484 0 01-.484.484.648.648 0 01-.286-.077l-.006-.004a2.6 2.6 0 00-.653-.255v1.741l.043.007c1.418.249 1.726 1.1 1.726 1.788 0 .575-.212 1.059-.609 1.405-.297.256-.692.423-1.159.495v.359a.42.42 0 01-.84-.004v-.331a3.467 3.467 0 01-1.638-.596.508.508 0 01-.235-.437.494.494 0 01.5-.491.598.598 0 01.32.1c.35.233.703.38 1.052.44V8.246l-.029-.003C6.086 7.997 5.785 7.156 5.785 6.48c0-1.036.666-1.742 1.724-1.869V4.28a.42.42 0 01.42-.42zm.422 4.52v1.69c.487-.12.775-.436.775-.882 0-.324-.103-.64-.775-.808zM6.776 6.437c0 .2 0 .585.731.783l.002-1.628c-.465.094-.733.397-.733.845z" fill="#5CB615" fill-rule="nonzero"/></svg>
